X:1
T:Puck
T:Puck
T:Op 71, No.  3
T:Edvard Grieg
T:Public Domain (PianoXML typeset)
T:Public Domain (PianoXML typeset)
T:Public Domain (PianoXML typeset)
C:Grieg
Z:Public Domain (PianoXML typeset)
%%score { 1 | 2 }
L:1/8
Q:1/2=165
M:2/2
K:Gb
V:1 treble nm="Grand Piano"
V:2 bass 
V:1
!pp!"^Allegro molto" z4 z4 | z4 z2!mp! EF | [GB]FEF [GB]FEF | .[GB]2 .[EG]2 .[EG]2 .[GB]2 | %4
 .[F=A]2 .[=CF]2!<(! .[=CF]2 .[FA]2!<)! | !>![F=A]6!mf! _AB | [ce]BAB [ce]BAB | %7
 .[ce]2 .[Ac]2 .[Ac]2 .[ce]2 | .[B=d]2 .[FB]2!<(! .[FB]2 .[Bd]2!<)! | !>![B=d]6!f! ga | %10
 !>![bd']aga [bd']2 de | !>![fa]ede [fa]2 AB | !>![eg]dcd [eg]2 GA | %13
 !>![Bd]AGA [Bd]2[K:bass] G,A, | !>!A,G, .F,2 !>!G,F, .E,2 |!>(! !>!F,E, .D,2 !>!E,=D, .=C,2!>)! | %16
 z8 |!pp! !>!E,D, .C,2 z4 | B,,F,B,[K:treble]B, FBBf | [Bfb]2 z2 z2 |:!pp! z2 | %21
[K:bass] [C,=D,F,]8- | [C,D,F,]2 z2 z2 .[=D,F,C]2 | %23
 .[=D,F,C]2!<(! .[D,F,B,]2 .[D,F,B,]2 .[D,F,=A,]2!<)! | %24
!>(! .[D,F,=A,]2 .[D,F,_A,]2 .[D,F,A,]2!>)! z2 | [__E,F,A,]8- | [__E,F,A,]2 z2 z2 .[F,A,__E]2 | %27
 .[F,A,__E]2!<(! .[F,A,D]2 .[F,A,D]2 .[F,A,C]2!<)! | %28
!>(! .[F,A,=C]2 .[F,A,_C]2 .[F,A,C]2!>)![K:treble] .[^G,=B,F]2 | %29
 .[^G,=B,F]2!<(! .[G,B,=E]2 .[G,B,E]2 .[G,B,^D]2!<)! | %30
!>(! .[^G,=B,^D]2 .[G,B,=D]2 .[G,B,D]2!>)! .[B,D_A]2 | %31
 .[=B,=DA]2!<(! .[B,D=G]2 .[B,DG]2 .[B,D^F]2!<)! | .[=B,=D^F]2 .[B,D=F]2 .[B,DF]2 .[DF_c]2 | %33
"_cresc." .[=DFc]2 .[DFB]2 .[DFB]2 .[FA__e]2 | .[FA__e]2 .[FAd]2 .[FAd]2 .[G=Bf]2 | %35
 .[^G=Bf]2 .[GB=e]2 .[GBe]2!f! .[B=da]2 | .[=B=da]2 .[Bd=g]2 .[Bdg]2!pp! cd | %37
"_dolce" [=e=g]=d=cd [eg]dcd | .[=e=g]2 .[=ce]2 .[ce]2 .[eg]2 | .[fa]2 .[=B=d]2 .[Bd]2 .[fa]2 | %40
 !>![f=a]6!pp! =c=d | .[=e=g]2 .[=ce]2 .[ce]2 .[eg]2 | .[f=a]2 .[=B=d]2 .[Bd]2 .[fa]2 | %43
"_cresc." .[=e=g]2 .[=ce]2"_molto" .[f=a]2 .[=B=d]2 | .[=e=g]2 .[=ce]2 .[f=a]2 .[=B=d]2 | %45
 .[=e=g]2 .[=ce]2!f! .[=a^c']2 .[^d^f]2 | .[^g=b]2 .[=eg]2 !>![=a^c']2 .[^d^f]2 | %47
!<(! .[^g=b]2 .[=eg]2 .[gb]2 .[eg]2 | .[^g=b]2 .[=eg]2 .[gb]2 .[eg]2!<)! | !>!B,8 | %50
 .[^g=b]2 .[=eg]2 .[gb]2 .[eg]2 | !>!B,8 | .[^g=b]2 .[=eg]2 .[gb]2 .[eg]2 |!pp! B,8- | B,8- | %55
 B,8- | B,8- |"_dim." B,8- | B,8- | B,8- | B,8- | B,4 z2!pp! EF | [GB]FEF [GB]FEF | %63
 .[GB]2 .[EG]2 .[EG]2 .[GB]2 | .[F=A]2!<(! .[=CF]2 .[CF]2 .[FA]2!<)! | !>![F=A]6 _AB | %66
 [ce]BAB [ce]BAB | .[ce]2 .[Ac]2 .[Ac]2 .[ce]2 | .[B=d]2 .[FB]2 .[FB]2 .[Bd]2 | %69
 !>![B=d]6!ff! c'd' | !>![c'e']bab [c'e']2 ga | !>![bd']aga [bd']2 fg | !>![ac']gfg [ac']2 cd | %73
 !>![eg]dcd [eg]2[K:bass] B,C | !>!DC .B,2 !>!CB, .A,2 | !>!B,A, .G,2 !>!A,G, .F,2 | z8 | %77
!pp! !>!A,G, ._F,2 z4 |!ff! E,B,E[K:treble]E Beb z |!ff! [ebe']2 z2 z2 :| %80
V:2
 .E,,2 .B,,2 .E,,2 .B,,,2 | .E,,2 .B,,2 .E,,2 .B,,,2 | .E,,2 .B,,2 .E,,2 .B,,,2 | %3
 .E,,2 .B,,2 .E,,2 .B,,,2 | .E,,2 .B,,2 .E,,2 .B,,,2 | .E,,2 .B,,2 .E,,2 .B,,,2 | %6
 .E,,2 .B,,2 .E,,2 .B,,,2 | .E,,2 .B,,2 .E,,2 .B,,,2 | .E,,2 .B,,2 .E,,2 .B,,,2 | %9
!ped! .E,,2 .B,,2 .E,,2!ped-up! z2 |[K:treble]!ped! !>![Gd]6!ped-up! z2 | %11
!ped! !>![D=A]6!ped-up! z2 |!ped! !>![CG]6!ped-up! z2 | !>![G,D]6[K:bass] F,,G,, | %14
 !>!A,,G,, .F,,2 !>!G,,F,, .E,,2 | !>!F,,E,, .D,,2 !>!E,,=D,, .=C,,2 | z8 | !>!E,,D,, .C,,2 z4 | %18
!f!!ped! !>![B,,,F,,]8 | [B,F]2!ped-up! z2 z2 |: C,,D,, | C,,B,,,A,,,B,,, C,,B,,,A,,,B,,, | %22
 .C,,2 .A,,,2 .A,,,2 z2 | z2 .B,,2 .B,,2 .C,2 | .C,2 z2 z2 C,,D,, | __E,,D,,C,,D,, E,,D,,C,,D,, | %26
 .__E,,2 .C,,2 .C,,2 z2 | z2 .D,2 .D,2 .__E,2 | .__E,2 z2 z4 | z2 .=E,2 .E,2 .F,2 | .F,2 z2 z4 | %31
 z2 .=G,2 .G,2 .A,2 | .A,2 z2 z4 | z2 .B,2 .B,2 z2 | z2 .D2 .D2 z2 | z2 .=E2 .E2 z2 | %36
 z2 .G2 .G2 z2 |[K:treble] .[=C=G]2 .[CG]2 .[CG]2 .[CG]2 | .[=C=G]2 .[CG]2 .[CG]2 .[CG]2 | %39
 .[=C=G]2 .[CG]2 .[CG]2 .[CG]2 | .[=C=G]2 .[CG]2 .[CG]2 .[CG]2 | .[=C=G]2 .[CG]2 .[CG]2 .[CG]2 | %42
 .[=C=G]2 .[CG]2 .[CG]2 .[CG]2 | .[=C=G]2 .[CG]2 .[CG]2 .[CG]2 | .[=C=G]2 .[CG]2 .[CG]2 .[CG]2 | %45
 .[=C=G]2 .[CG]2 .[=E=B]2 .[EB]2 | .[=E=B]2 .[EB]2 .[EB]2 .[EB]2 | %47
!ped! .[=E=B]2 .[EB]2 .[EB]2 .[EB]2 | .[=E=B]2 .[EB]2 .[EB]2 .[EB]2!ped-up! |!p!!ped! z8!ped-up! | %50
 .[=E=B]2 .[EB]2 .[EB]2 .[EB]2 |!ped! z8!ped-up! | .[=E=B]2 .[EB]2 .[EB]2 .[EB]2 | %53
[K:bass] z2 .=A,2 ._A,2 .=G,2 | .G,2 .F,2 .=E,2 ._E,2 | z2 .=D,2 ._D,2 .=C,2 | %56
 .C,2 .B,,2 .=A,,2 ._A,,2 | z4 .=G,,2 z2 | z4 .G,,2 z2 | z4 .F,,2 z2 | z4 ._F,,2 z2 | z8 | %62
 .E,,2 .B,,2 .E,,2 .B,,,2 | .E,,2 .B,,2 .E,,2 .B,,,2 | .E,,2 .B,,2 .E,,2 .B,,,2 | %65
 .E,,2 .B,,2 .E,,2 .B,,,2 | .E,,2 .B,,2 .E,,2 .B,,,2 | .E,,2 .B,,2 .E,,2 .B,,,2 | %68
 .E,,2 .B,,2 .E,,2 .B,,,2 | .E,,2 .B,,2 .E,,2 z2 |[K:treble]!ped! !>![cg]6!ped-up! z2 | %71
!ped! !>![Gd]6!ped-up! z2 |!ped! !>![_Fc]6!ped-up! z2 |!ped! !>![CG]6!ped-up![K:bass] B,,C, | %74
 !>!D,C, .B,,2 !>!C,B,, .A,,2 | !>!B,,A,, .G,,2 !>!A,,G,, .F,,2 | z8 | !>!A,,G,, ._F,,2 z4 | %78
 [E,,B,,]8 |[K:treble] [EB]2 z2 z2 :| %80

